src/assets/x.svg

<svg fill="none" height="48" viewBox="0 0 48 48" width="48" xmlns="http://www.w3.org/2000/svg"><circle cx="24" cy="24" fill="#202020" r="24"/><path d="m26.3784 22.3074 9.3068-10.8184h-2.2054l-8.0811 9.3935-6.4544-9.3935h-7.4443l9.7603 14.2046-9.7603 11.3448h2.2055l8.5339-9.9198 6.8163 9.9198h7.4443l-10.1221-14.731zm-3.0208 3.5114-.9889-1.4145-7.8685-11.255h3.3876l6.35 9.0832.9889 1.4144 8.2541 11.8067h-3.3875l-6.7357-9.6343z" fill="#fff"/></svg>

<svg width="48" height="48" viewBox="0 0 48 48" fill="none" xmlns="http://www.w3.org/2000/svg">
<circle cx="24" cy="24" r="24" fill="#202020"/>
<path d="M26.3784 22.3074L35.6852 11.489H33.4798L25.3987 20.8825L18.9443 11.489H11.5L21.2603 25.6936L11.5 37.0384H13.7055L22.2394 27.1186L29.0557 37.0384H36.5L26.3779 22.3074H26.3784ZM23.3576 25.8188L22.3687 24.4043L14.5002 13.1493H17.8878L24.2378 22.2325L25.2267 23.6469L33.4808 35.4536H30.0933L23.3576 25.8193V25.8188Z" fill="white"/>
</svg>
